lib/flags/l/336.svg

<svg xmlns="http://www.w3.org/2000/svg" fill="none" viewBox="0 0 32 24"><mask id="336_svg__a" width="32" height="24" x="0" y="0" mask-type="alpha" maskUnits="userSpaceOnUse"><path fill="#fff" d="M0 0H32V24H0z"/></mask><g mask="url(#336_svg__a)"><path fill="#F7FCFF" fill-rule="evenodd" d="M0 0H32V24H0V0Z" clip-rule="evenodd"/><path fill="#FFDC17" fill-rule="evenodd" d="M0 0H14V24H0V0Z" clip-rule="evenodd"/><path fill="#AF0100" d="M22.7816 12.7512 22.4364 12.7737C22.5189 13.9595 22.7736 14.8754 23.2059 15.5218 23.9031 16.5643 24.8232 17.3703 25.4389 17.3703 25.5787 17.3703 25.6112 17.4222 25.5651 17.5504 25.4995 17.7327 25.2921 17.912 25.0253 17.9808 24.5815 18.0953 23.5722 18.1545 22.0145 18.1545V18.4894C23.6034 18.4894 24.631 18.4291 25.1144 18.3044 25.4898 18.2076 25.7877 17.9501 25.8918 17.6605 26.0123 17.3257 25.8305 17.0354 25.4389 17.0354 24.9816 17.0354 24.1333 16.2923 23.4963 15.3399 23.1004 14.7479 22.8604 13.8849 22.7816 12.7512zM21.147 12.7512 21.4921 12.7737C21.4097 13.9595 21.155 14.8754 20.7226 15.5218 20.0255 16.5643 19.1054 17.3703 18.4897 17.3703 18.3499 17.3703 18.3174 17.4222 18.3635 17.5504 18.4291 17.7327 18.6365 17.912 18.9033 17.9808 19.3471 18.0953 20.3564 18.1545 21.914 18.1545V18.4894C20.3252 18.4894 19.2976 18.4291 18.8142 18.3044 18.4388 18.2076 18.1409 17.9501 18.0368 17.6605 17.9163 17.3257 18.0981 17.0354 18.4897 17.0354 18.947 17.0354 19.7952 16.2923 20.4322 15.3399 20.8282 14.7479 21.0682 13.8849 21.147 12.7512z"/><path fill="#F4B300" fill-rule="evenodd" d="M28.0669 6.7981L18.9254 13.9241C18.6054 13.8198 18.2559 13.7628 17.8919 13.7628C16.4088 13.7628 15.1676 14.7101 15.1676 15.9395C15.1676 17.1689 16.4088 18.1162 17.8919 18.1162C18.062 18.1162 18.2289 18.1038 18.3912 18.0799C18.2411 17.9627 18.129 17.8162 18.073 17.6604C18.0056 17.473 18.0328 17.2996 18.1385 17.1832C18.0582 17.1912 17.9758 17.1953 17.8919 17.1953C16.8913 17.1953 16.119 16.6058 16.119 15.9395C16.119 15.2731 16.8913 14.6837 17.8919 14.6837C18.8926 14.6837 19.6649 15.2731 19.6649 15.9395C19.6649 16.1434 19.5926 16.34 19.4636 16.5148C19.4879 16.4932 19.5123 16.4709 19.5367 16.4482C19.8535 16.1532 19.1416 17.3702 18.5259 17.3702C18.3861 17.3702 18.3536 17.4221 18.3997 17.5503C18.4611 17.7211 18.647 17.8892 18.8896 17.9663C19.8923 17.6528 20.6163 16.8784 20.6163 15.9395C20.6163 15.5554 20.4951 15.1989 20.2833 14.8902L25.1962 10.7206L25.525 11.0603L25.7617 10.8456L26.5824 11.4538L26.2392 11.7183L26.9397 12.5697L28.3527 11.4804L28.3766 11.468L28.3725 11.4652L28.46 11.3976L27.7596 10.5463L27.421 10.8073L26.5034 10.1729L26.6109 10.0754L26.3157 9.77038L26.7597 9.39361L26.9953 9.63705L27.2483 9.40757L28.0439 10.0373L27.7095 10.2951L28.4099 11.1465L29.6204 10.2133L29.759 10.1374L29.7389 10.122L29.9303 9.97438L29.2299 9.123L28.8343 9.42798L27.9629 8.75944L28.0812 8.65213L27.8792 8.44343L28.7837 7.6758L28.0669 6.7981Z" clip-rule="evenodd"/><path fill="#BFBFBF" fill-rule="evenodd" d="M15.6865 14.7257C15.9492 14.7257 16.1622 14.557 16.1622 14.3489 16.1622 14.1408 15.9492 13.9722 15.6865 13.9722 15.4238 13.9722 15.2108 14.1408 15.2108 14.3489 15.2108 14.557 15.4238 14.7257 15.6865 14.7257zM15.8595 18.1582C16.1222 18.1582 16.3351 17.9895 16.3351 17.7815 16.3351 17.5734 16.1222 17.4047 15.8595 17.4047 15.5968 17.4047 15.3838 17.5734 15.3838 17.7815 15.3838 17.9895 15.5968 18.1582 15.8595 18.1582zM20.573 17.7815C20.573 17.9895 20.36 18.1582 20.0973 18.1582 19.8346 18.1582 19.6216 17.9895 19.6216 17.7815 19.6216 17.5734 19.8346 17.4047 20.0973 17.4047 20.36 17.4047 20.573 17.5734 20.573 17.7815zM23.3837 15.9396C23.3837 15.387 23.6345 14.8914 24.0453 14.5132L18.7957 10.4479 18.7359 10.494 18.8889 10.6328 18.475 11.0604 18.257 10.8627 17.4535 11.4816 17.7608 11.7185 17.0603 12.5698 15.6624 11.4921 15.6234 11.4681 15.6275 11.4653 15.54 11.3977 16.2404 10.5464 16.579 10.8074 17.4966 10.173 17.3891 10.0755 17.7857 9.66569 17.3235 9.30777 17.0047 9.63716 16.7612 9.41628 15.9758 10.0526 16.2905 10.2952 15.5901 11.1466 14.4181 10.2431 14.241 10.1375 14.2611 10.1221 14.0697 9.97449 14.7701 9.12311 15.1657 9.42809 16.0371 8.75955 15.9188 8.65224 16.158 8.40513 15.2163 7.67591 15.8106 6.95679 24.8924 13.9899C25.2602 13.8441 25.6737 13.7629 26.1081 13.7629 27.5912 13.7629 28.8324 14.7102 28.8324 15.9396 28.8324 17.169 27.5912 18.1164 26.1081 18.1164 25.938 18.1164 25.7711 18.1039 25.6088 18.08 25.7589 17.9628 25.871 17.8163 25.927 17.6605 25.9944 17.4731 25.9672 17.2997 25.8615 17.1833 25.9418 17.1913 26.0242 17.1954 26.1081 17.1954 27.1087 17.1954 27.881 16.606 27.881 15.9396 27.881 15.2733 27.1087 14.6838 26.1081 14.6838 25.1074 14.6838 24.3351 15.2733 24.3351 15.9396 24.3351 16.1435 24.4074 16.3401 24.5364 16.5149 24.5121 16.4933 24.4877 16.471 24.4633 16.4483 24.1465 16.1533 24.8584 17.3703 25.4741 17.3703 25.6139 17.3703 25.6464 17.4222 25.6003 17.5504 25.5389 17.7212 25.353 17.8893 25.1104 17.9665 24.1077 17.6529 23.3837 16.8785 23.3837 15.9396z" clip-rule="evenodd"/><path fill="#F4B300" fill-rule="evenodd" d="M28.3135 14.7257C28.0508 14.7257 27.8378 14.557 27.8378 14.3489C27.8378 14.1408 28.0508 13.9722 28.3135 13.9722C28.5762 13.9722 28.7892 14.1408 28.7892 14.3489C28.7892 14.557 28.5762 14.7257 28.3135 14.7257ZM28.1405 18.1582C27.8778 18.1582 27.6649 17.9895 27.6649 17.7815C27.6649 17.5734 27.8778 17.4047 28.1405 17.4047C28.4032 17.4047 28.6162 17.5734 28.6162 17.7815C28.6162 17.9895 28.4032 18.1582 28.1405 18.1582ZM23.427 17.7815C23.427 17.9895 23.64 18.1582 23.9027 18.1582C24.1654 18.1582 24.3784 17.9895 24.3784 17.7815C24.3784 17.5734 24.1654 17.4047 23.9027 17.4047C23.64 17.4047 23.427 17.5734 23.427 17.7815Z" clip-rule="evenodd"/><path fill="#AF0100" fill-rule="evenodd" d="M21.7405 11.7954C21.6689 11.7954 21.6108 11.8535 21.6108 11.9251V12.4652H21.131C21.0616 12.4652 21.0054 12.5214 21.0054 12.5908C21.0054 12.6601 21.0616 12.7163 21.131 12.7163H21.6108V19.8703C21.6108 19.942 21.6689 20.0001 21.7405 20.0001H22C22.0716 20.0001 22.1297 19.942 22.1297 19.8703V12.7163H22.869C22.9383 12.7163 22.9946 12.6601 22.9946 12.5908C22.9946 12.5214 22.9383 12.4652 22.869 12.4652H22.1297V11.9251C22.1297 11.8535 22.0716 11.7954 22 11.7954H21.7405Z" clip-rule="evenodd"/><path fill="#979797" fill-rule="evenodd" d="M16.7545 7.59357 16.9662 7.73883C17.4595 7.06519 17.9035 6.92988 18.355 7.28343 19.1346 7.89381 19.2021 9.38303 18.3684 9.88164 17.3741 10.4763 16.8701 11.636 17.311 12.2672 17.7178 12.8496 18.6987 12.6292 19.667 11.8976 19.8389 11.7678 20.0028 11.6291 20.1568 11.4834L19.9523 11.3255C19.812 11.4567 19.6632 11.5819 19.5074 11.6996 18.6437 12.3521 17.8138 12.5386 17.5259 12.1265 17.1822 11.6345 17.6216 10.6235 18.5048 10.0953 19.5038 9.49782 19.4268 7.79957 18.5182 7.08814 17.9321 6.62927 17.3252 6.81424 16.7545 7.59357zM20.5625 10.6448 20.7735 10.7912C21.1408 10.2957 21.3916 9.759 21.4749 9.23042L21.2184 9.19257C21.1417 9.67938 20.9071 10.1797 20.5625 10.6448zM27.2694 7.59357 27.0577 7.73883C26.5644 7.06519 26.1205 6.92988 25.6689 7.28343 24.8893 7.89381 24.8218 9.38303 25.6555 9.88164 26.6499 10.4763 27.1538 11.636 26.7129 12.2672 26.3061 12.8496 25.3253 12.6292 24.3569 11.8976 24.185 11.7678 24.0211 11.6291 23.8671 11.4834L24.0717 11.3255C24.2119 11.4567 24.3607 11.5819 24.5166 11.6996 25.3803 12.3521 26.2101 12.5386 26.498 12.1265 26.8417 11.6345 26.4024 10.6235 25.5192 10.0953 24.5201 9.49782 24.5971 7.79957 25.5058 7.08814 26.0918 6.62927 26.6987 6.81424 27.2694 7.59357zM23.4615 10.6448 23.2504 10.7912C22.8832 10.2957 22.6323 9.759 22.549 9.23042L22.8055 9.19257C22.8822 9.67938 23.1168 10.1797 23.4615 10.6448z" clip-rule="evenodd"/><path fill="#AF0100" fill-rule="evenodd" d="M21.8702 20.0165C22.1568 20.0165 22.3892 19.9003 22.3892 19.757 22.3892 19.6137 22.1568 19.4976 21.8702 19.4976 21.5836 19.4976 21.3513 19.6137 21.3513 19.757 21.3513 19.9003 21.5836 20.0165 21.8702 20.0165zM21.7837 9.21942C22.7868 9.21942 23.6 9.08389 23.6 8.91672 23.6 8.74954 22.7868 8.61401 21.7837 8.61401 20.7807 8.61401 19.9675 8.74954 19.9675 8.91672 19.9675 9.08389 20.7807 9.21942 21.7837 9.21942z" clip-rule="evenodd"/><path fill="#F4B300" fill-rule="evenodd" d="M21.886 2.03833H21.6266V2.33746H21.3808V2.58862H21.6266V3.32161H21.886V2.58862H22.1855V2.33746H21.886V2.03833ZM19.9351 5.65665L19.8192 5.46156C19.8826 5.43496 19.9474 5.40986 20.0135 5.38625L19.6759 4.64602L19.9133 4.54459L20.2608 5.30664C20.3345 5.28541 20.4096 5.26587 20.4862 5.24801C20.4329 5.18763 20.4 5.10502 20.4 5.01391C20.4 4.82896 20.5355 4.67903 20.7027 4.67903C20.8699 4.67903 21.0054 4.82896 21.0054 5.01391C21.0054 5.06611 20.9946 5.11551 20.9753 5.15955C21.1809 5.13229 21.3955 5.11542 21.6193 5.10889V4.8251H21.2944V4.6231H21.6193V4.38252H21.9624V4.6231H22.3584V4.8251H21.9624V5.10691C22.2174 5.11134 22.4562 5.12908 22.679 5.16021C22.6595 5.11601 22.6486 5.06637 22.6486 5.01391C22.6486 4.82896 22.7842 4.67903 22.9513 4.67903C23.1185 4.67903 23.254 4.82896 23.254 5.01391C23.254 5.10863 23.2185 5.19416 23.1614 5.25508C23.2581 5.2803 23.351 5.30873 23.44 5.34038L23.6884 4.79575L23.9258 4.89719L23.6794 5.43747C23.6989 5.44644 23.7181 5.4556 23.7372 5.46494L23.6065 5.65327L23.5856 5.64315L23.5457 5.73058L23.3083 5.62915L23.3471 5.54411C22.9686 5.40826 22.5072 5.33487 21.9624 5.32499V5.41464H21.6193V5.32706C20.9726 5.34677 20.4114 5.45689 19.9351 5.65665ZM19.8192 5.88017L19.8798 5.98216L19.6759 6.06928L20.0135 6.8095C19.9474 6.83311 19.8826 6.85822 19.8192 6.88482L19.9351 7.0799C20.4114 6.88015 20.9726 6.77002 21.6193 6.75031V6.83789H21.9624V6.74824C22.5072 6.75813 22.9686 6.83152 23.3471 6.96737L23.3083 7.0524L23.5457 7.15384L23.5856 7.06641L23.6065 7.07653L23.7372 6.88819C23.7181 6.87885 23.6989 6.8697 23.6794 6.86073L23.9258 6.32044L23.6884 6.21901L23.44 6.76364C23.351 6.73199 23.2581 6.70356 23.1614 6.67833C23.2185 6.61742 23.254 6.53189 23.254 6.43717C23.254 6.25222 23.1185 6.10228 22.9513 6.10228C22.7842 6.10228 22.6486 6.25222 22.6486 6.43717C22.6486 6.48963 22.6595 6.53927 22.679 6.58347C22.4562 6.55234 22.2174 6.5346 21.9624 6.53017V6.24836H22.3584V6.04635H21.9624V5.80577H21.6193V6.04635H21.2944V6.24836H21.6193V6.53215C21.3955 6.53868 21.1809 6.55555 20.9753 6.5828C20.9946 6.53877 21.0054 6.48936 21.0054 6.43717C21.0054 6.25222 20.8699 6.10228 20.7027 6.10228C20.5355 6.10228 20.4 6.25222 20.4 6.43717C20.4 6.52828 20.4329 6.61089 20.4862 6.67127C20.4096 6.68912 20.3345 6.70866 20.2608 6.72989L19.9579 6.06576C20.4816 5.85055 21.1065 5.74244 21.8338 5.74244C22.5695 5.74244 23.16 5.85304 23.6065 6.07188L23.7372 5.88354C23.2471 5.64333 22.6122 5.52441 21.8338 5.52441C21.0576 5.52441 20.3857 5.64264 19.8192 5.88017ZM19.8192 7.30342L19.8798 7.40541L19.6759 7.49254L20.0135 8.23276C19.9474 8.25637 19.8826 8.28147 19.8192 8.30807L19.9351 8.50316C20.4114 8.3034 20.9726 8.19328 21.6193 8.17357V8.26115H21.9624V8.1715C22.5072 8.18139 22.9686 8.25477 23.3471 8.39062L23.3083 8.47566L23.5457 8.57709L23.5856 8.48967L23.6065 8.49978L23.7372 8.31145C23.7181 8.30211 23.6989 8.29295 23.6794 8.28398L23.9258 7.7437L23.6884 7.64226L23.44 8.18689C23.351 8.15524 23.2581 8.12681 23.1614 8.10159C23.2185 8.04068 23.254 7.95514 23.254 7.86042C23.254 7.67547 23.1185 7.52554 22.9513 7.52554C22.7842 7.52554 22.6486 7.67547 22.6486 7.86042C22.6486 7.91288 22.6595 7.96252 22.679 8.00673C22.4562 7.97559 22.2174 7.95785 21.9624 7.95343V7.67162H22.3584V7.46961H21.9624V7.22903H21.6193V7.46961H21.2944V7.67162H21.6193V7.95541C21.3955 7.96193 21.1809 7.97881 20.9753 8.00606C20.9946 7.96202 21.0054 7.91262 21.0054 7.86042C21.0054 7.67547 20.8699 7.52554 20.7027 7.52554C20.5355 7.52554 20.4 7.67547 20.4 7.86042C20.4 7.95153 20.4329 8.03415 20.4862 8.09452C20.4096 8.11238 20.3345 8.13192 20.2608 8.15315L19.9579 7.48902C20.4816 7.27381 21.1065 7.16569 21.8338 7.16569C22.5695 7.16569 23.16 7.2763 23.6065 7.49513L23.7372 7.3068C23.2471 7.06659 22.6122 6.94767 21.8338 6.94767C21.0576 6.94767 20.3857 7.0659 19.8192 7.30342ZM19.8192 8.72668L19.9351 8.92176C20.4633 8.70024 21.0958 8.58895 21.8338 8.58895C22.5695 8.58895 23.16 8.69956 23.6065 8.91839L23.7372 8.73005C23.2471 8.48984 22.6122 8.37092 21.8338 8.37092C21.0576 8.37092 20.3857 8.48916 19.8192 8.72668Z" clip-rule="evenodd"/></g></svg>

<svg xmlns="http://www.w3.org/2000/svg" fill="none" viewBox="0 0 32 24"><mask id="336_svg__a" width="32" height="24" x="0" y="0" maskUnits="userSpaceOnUse"><path fill="#fff" d="M0 0h32v24H0z"/></mask><g mask="url(#336_svg__a)"><path fill="#F7FCFF" fill-rule="evenodd" d="M0 0h32v24H0V0z" clip-rule="evenodd"/><path fill="#FFDC17" fill-rule="evenodd" d="M0 0h14v24H0V0z" clip-rule="evenodd"/><path fill="#AF0100" d="M22.782 12.751l-.346.023c.083 1.185.338 2.101.77 2.748.697 1.042 1.617 1.848 2.233 1.848.14 0 .172.052.126.18-.066.183-.273.362-.54.43-.444.115-1.453.174-3.01.174v.335c1.588 0 2.616-.06 3.1-.185.375-.096.673-.354.777-.643.12-.335-.061-.626-.453-.626-.457 0-1.306-.743-1.943-1.695-.396-.592-.636-1.455-.714-2.589zm-1.635 0l.345.023c-.082 1.185-.337 2.101-.77 2.748-.697 1.042-1.617 1.848-2.232 1.848-.14 0-.173.052-.127.18.066.183.274.362.54.43.444.115 1.453.174 3.011.174v.335c-1.589 0-2.616-.06-3.1-.185-.375-.096-.673-.354-.777-.643-.12-.335.061-.626.453-.626.457 0 1.305-.743 1.942-1.695.396-.592.636-1.455.715-2.589z"/><path fill="#F4B300" fill-rule="evenodd" d="M28.067 6.798l-9.142 7.126a3.34 3.34 0 00-1.033-.161c-1.483 0-2.724.947-2.724 2.177 0 1.229 1.24 2.176 2.724 2.176.17 0 .337-.012.5-.036a.958.958 0 01-.319-.42c-.067-.187-.04-.36.066-.477-.08.008-.163.012-.247.012-1 0-1.773-.59-1.773-1.255 0-.667.772-1.256 1.773-1.256 1 0 1.773.59 1.773 1.256 0 .203-.072.4-.201.575a4.38 4.38 0 00.073-.067c.317-.295-.395.922-1.011.922-.14 0-.172.052-.126.18.061.171.247.34.49.416 1.002-.313 1.726-1.088 1.726-2.026 0-.384-.12-.741-.333-1.05l4.913-4.17.329.34.237-.214.82.608-.343.264.7.852 1.414-1.09.024-.012-.005-.003.088-.067-.7-.852-.339.261-.918-.634.108-.098-.295-.305.444-.376.235.243.253-.23.796.63-.335.258.7.851 1.211-.933.139-.075-.02-.016.191-.148-.7-.85-.396.304-.871-.669.118-.107-.202-.209.905-.767-.717-.878z" clip-rule="evenodd"/><path fill="#BFBFBF" fill-rule="evenodd" d="M15.687 14.726c.262 0 .475-.17.475-.377 0-.208-.213-.377-.475-.377-.263 0-.476.169-.476.377s.213.377.476.377zm.173 3.432c.262 0 .475-.169.475-.377s-.213-.376-.476-.376c-.262 0-.475.168-.475.376 0 .209.213.377.476.377zm4.713-.377c0 .209-.213.377-.476.377-.262 0-.475-.169-.475-.377s.213-.376.475-.376c.263 0 .476.168.476.376zm2.811-1.841c0-.553.25-1.049.661-1.427l-5.25-4.065-.06.046.154.139-.414.427-.218-.197-.804.619.308.236-.7.852-1.399-1.078-.039-.024.005-.003-.088-.067.7-.852.339.261.918-.634-.108-.098.397-.41-.463-.357-.318.33-.244-.222-.785.636.315.243-.7.851-1.173-.903-.177-.106.02-.015-.191-.148.7-.851.396.305.871-.669-.118-.107.239-.247-.942-.73.595-.718 9.081 7.033a3.305 3.305 0 011.216-.227c1.483 0 2.724.947 2.724 2.177 0 1.229-1.24 2.176-2.724 2.176-.17 0-.337-.012-.5-.036a.958.958 0 00.319-.42c.067-.187.04-.36-.066-.477.08.008.163.012.247.012 1 0 1.773-.59 1.773-1.255 0-.667-.772-1.256-1.773-1.256-1 0-1.773.59-1.773 1.256 0 .203.072.4.201.575a4.38 4.38 0 01-.073-.067c-.317-.295.395.922 1.011.922.14 0 .172.052.126.18-.061.171-.247.34-.49.416-1.002-.313-1.726-1.088-1.726-2.027z" clip-rule="evenodd"/><path fill="#F4B300" fill-rule="evenodd" d="M28.314 14.726c-.263 0-.476-.17-.476-.377 0-.208.213-.377.476-.377.262 0 .475.169.475.377s-.213.377-.476.377zm-.174 3.432c-.262 0-.475-.169-.475-.377s.213-.376.476-.376c.262 0 .475.168.475.376 0 .209-.213.377-.476.377zm-4.713-.377c0 .209.213.377.476.377.262 0 .475-.169.475-.377s-.213-.376-.475-.376c-.263 0-.476.168-.476.376z" clip-rule="evenodd"/><path fill="#AF0100" fill-rule="evenodd" d="M21.74 11.795a.13.13 0 00-.13.13v.54h-.479a.126.126 0 100 .251h.48v7.154c0 .072.058.13.13.13H22a.13.13 0 00.13-.13v-7.154h.739a.126.126 0 000-.25h-.74v-.54a.13.13 0 00-.129-.13h-.26z" clip-rule="evenodd"/><path fill="#979797" fill-rule="evenodd" d="M16.755 7.594l.211.145c.493-.674.938-.809 1.389-.455.78.61.847 2.1.013 2.598-.994.594-1.498 1.754-1.057 2.385.407.583 1.388.362 2.356-.37a5.83 5.83 0 00.49-.413l-.205-.158a5.55 5.55 0 01-.445.374c-.863.652-1.693.839-1.981.427-.344-.492.096-1.503.979-2.032.999-.597.922-2.295.013-3.007-.586-.459-1.193-.274-1.764.506zm3.808 3.051l.21.146c.368-.495.619-1.032.702-1.56l-.257-.038c-.076.487-.31.987-.655 1.452zm6.707-3.051l-.212.145c-.494-.674-.938-.809-1.39-.455-.779.61-.846 2.1-.012 2.598.994.594 1.498 1.754 1.057 2.385-.407.583-1.388.362-2.356-.37a5.83 5.83 0 01-.49-.413l.205-.158c.14.13.289.256.445.374.863.652 1.693.839 1.981.427.344-.492-.096-1.503-.979-2.032-.999-.597-.922-2.295-.013-3.007.586-.459 1.193-.274 1.763.506zm-3.808 3.051l-.212.146c-.367-.495-.618-1.032-.701-1.56l.256-.038c.077.487.312.987.657 1.452z" clip-rule="evenodd"/><path fill="#AF0100" fill-rule="evenodd" d="M21.87 20.017c.287 0 .52-.117.52-.26 0-.143-.233-.26-.52-.26-.286 0-.519.117-.519.26 0 .143.233.26.52.26zM21.784 9.22c1.003 0 1.816-.136 1.816-.303 0-.168-.813-.303-1.816-.303-1.003 0-1.816.135-1.816.303 0 .167.813.302 1.816.302z" clip-rule="evenodd"/><path fill="#F4B300" fill-rule="evenodd" d="M21.886 2.038h-.26v.3h-.245v.25h.246v.734h.259v-.733h.3v-.251h-.3v-.3zm-1.95 3.619l-.117-.195a3.76 3.76 0 01.195-.076l-.338-.74.237-.101.348.762a4.53 4.53 0 01.225-.059.353.353 0 01-.086-.234c0-.185.136-.335.303-.335.167 0 .302.15.302.335 0 .052-.01.102-.03.146a5.96 5.96 0 01.644-.051v-.284h-.325v-.202h.325v-.24h.343v.24h.396v.202h-.396v.282c.255.004.494.022.717.053a.362.362 0 01-.03-.146c0-.185.135-.335.302-.335.168 0 .303.15.303.335 0 .095-.036.18-.093.241.097.025.19.054.279.085l.248-.544.238.101-.247.54.058.028-.13.188-.021-.01-.04.088-.238-.102.04-.085c-.38-.136-.84-.21-1.386-.219v.09h-.343v-.088c-.646.02-1.208.13-1.684.33zm-.117.223l.06.102-.203.087.338.74c-.067.024-.131.05-.195.076l.116.195c.476-.2 1.038-.31 1.684-.33v.088h.343v-.09c.545.01 1.007.084 1.385.22l-.039.084.238.102.04-.088.02.01.131-.188a2.699 2.699 0 00-.058-.027l.247-.54-.238-.102-.248.545a3.369 3.369 0 00-.279-.086.352.352 0 00.093-.24c0-.186-.136-.336-.303-.336-.167 0-.302.15-.302.335 0 .053.01.102.03.147a5.932 5.932 0 00-.717-.054v-.282h.396v-.202h-.396v-.24h-.343v.24h-.325v.202h.325v.284a6.3 6.3 0 00-.644.05.362.362 0 00.03-.145c0-.185-.135-.335-.302-.335-.168 0-.303.15-.303.335 0 .091.033.174.086.234a4.53 4.53 0 00-.225.059l-.303-.664c.524-.215 1.149-.324 1.876-.324.736 0 1.326.111 1.773.33l.13-.188c-.49-.24-1.125-.36-1.903-.36-.776 0-1.448.119-2.015.356zm0 1.423l.06.102-.203.088.338.74c-.067.023-.131.049-.195.075l.116.195c.476-.2 1.038-.31 1.684-.33v.088h.343v-.09c.545.01 1.007.084 1.385.22l-.039.085.238.101.04-.087.02.01.131-.188a2.748 2.748 0 00-.058-.028l.247-.54-.238-.102-.248.545a3.369 3.369 0 00-.279-.085.352.352 0 00.093-.242c0-.184-.136-.334-.303-.334-.167 0-.302.15-.302.334 0 .053.01.103.03.147a5.93 5.93 0 00-.717-.054v-.281h.396V7.47h-.396v-.24h-.343v.24h-.325v.202h.325v.283a6.298 6.298 0 00-.644.051.362.362 0 00.03-.146c0-.184-.135-.334-.302-.334-.168 0-.303.15-.303.334 0 .092.033.174.086.235a4.53 4.53 0 00-.225.058l-.303-.664c.524-.215 1.149-.323 1.876-.323.736 0 1.326.11 1.773.33l.13-.19c-.49-.24-1.125-.358-1.903-.358-.776 0-1.448.118-2.015.355zm0 1.424l.116.195c.528-.222 1.16-.333 1.899-.333.736 0 1.326.11 1.773.33l.13-.189c-.49-.24-1.125-.359-1.903-.359-.776 0-1.448.118-2.015.356z" clip-rule="evenodd"/></g></svg>
